(.../pcb-gcode-3.6.0.4/pcb-gcode.ulp)
(Copyright 2005 - 2012 by John Johnson)
(See readme.txt for licensing terms.)
(This file generated from the board:)
(.../eagle/car_usb_charger/rev1.brd)
(Current profile is .../pcb-gcode-3.6.0.4/profiles/generic.pp  )
(This file generated 8/9/13 6:49 PM)
(Settings from pcb-machine.h)
(  Tool Size)
(0.3000 )
(Z Axis Settings)
(  High     Up        Down     Drill)
(10.0000 	2.0000 	-0.1500 	-0.6000 )
(spindle on time = 3.0000)
(milling depth = -0.2540)
(text depth = -0.1270)
(tool change at 20.0000 20.0000 30.0000 )
(feed rate xy = F400.00 )
(feed rate z  = F200.00 )
(Settings from pcb-defaults.h)
(isolate min = 0.0300)
(isolate max = 0.5080)
(isolate step = 0.1270)
(Generated bottom outlines, bottom drill, )
(Unit of measure: mm)
( Tool|       Size       |  Min Sub |  Max Sub |   Count )
( T01  0.100mm 0.0039in 0.0000in 0.0000in )
( T02  0.600mm 0.0236in 0.0000in 0.0000in )
( T03  0.813mm 0.0320in 0.0000in 0.0000in )
( T04  0.900mm 0.0354in 0.0000in 0.0000in )
( T05  0.950mm 0.0374in 0.0000in 0.0000in )
( T06  1.000mm 0.0394in 0.0000in 0.0000in )
( T07  1.016mm 0.0400in 0.0000in 0.0000in )
( T08  1.300mm 0.0512in 0.0000in 0.0000in )
( T09  1.500mm 0.0591in 0.0000in 0.0000in )
( T10  2.000mm 0.0787in 0.0000in 0.0000in )
( T11  2.300mm 0.0906in 0.0000in 0.0000in )
(Metric Mode)
G21
(Absolute Coordinates)
G90
M05
G00 Z30.0000 
G00 X20.0000 Y20.0000 
M06 T01  ; 0.1000 
G01 Z0.0000 F200.00 
M06 T01  ; 0.1000 
G00 Z2.0000 
M03
G04 P3.000000
G00 Z2.000000
G00 X-10.3000 Y66.5000 
G01 Z-0.6000 F200.00 
G01 Z2.000000
(R2.0000  P1.000000)
(G00 Z2.000000)
G00 X-10.3000 Y67.5000 
G01 Z-0.600000
G01 Z2.000000
(G00 Z2.000000)
G00 X-11.5000 Y67.0000 
G01 Z-0.600000
G01 Z2.000000
M05
G00 Z30.0000 
M06 T02  ; 0.6000 
G01 Z0.0000 F200.00 
M06 T02  ; 0.6000 
G00 Z2.0000 
M03
G04 P3.000000
G00 Z2.000000
G00 X-12.5000 Y54.0000 
G01 Z-0.6000 F200.00 
G01 Z2.000000
(R2.0000  P1.000000)
(G00 Z2.000000)
G00 X-12.5000 Y54.5000 
G01 Z-0.600000
G01 Z2.000000
(G00 Z2.000000)
G00 X-12.5000 Y55.0000 
G01 Z-0.600000
G01 Z2.000000
(G00 Z2.000000)
G00 X-12.5000 Y55.5000 
G01 Z-0.600000
G01 Z2.000000
(G00 Z2.000000)
G00 X-12.5000 Y56.0000 
G01 Z-0.600000
G01 Z2.000000
(G00 Z2.000000)
G00 X-12.5000 Y56.5000 
G01 Z-0.600000
G01 Z2.000000
(G00 Z2.000000)
G00 X-13.0000 Y54.0000 
G01 Z-0.600000
G01 Z2.000000
(G00 Z2.000000)
G00 X-13.0000 Y54.0000 
G01 Z-0.600000
G01 Z2.000000
(G00 Z2.000000)
G00 X-13.0000 Y56.5000 
G01 Z-0.600000
G01 Z2.000000
(G00 Z2.000000)
G00 X-13.5000 Y54.0000 
G01 Z-0.600000
G01 Z2.000000
(G00 Z2.000000)
G00 X-13.5000 Y54.5000 
G01 Z-0.600000
G01 Z2.000000
(G00 Z2.000000)
G00 X-13.5000 Y55.0000 
G01 Z-0.600000
G01 Z2.000000
(G00 Z2.000000)
G00 X-13.5000 Y55.5000 
G01 Z-0.600000
G01 Z2.000000
(G00 Z2.000000)
G00 X-13.5000 Y56.0000 
G01 Z-0.600000
G01 Z2.000000
(G00 Z2.000000)
G00 X-13.5000 Y56.5000 
G01 Z-0.600000
G01 Z2.000000
(G00 Z2.000000)
G00 X-24.0000 Y54.0000 
G01 Z-0.600000
G01 Z2.000000
(G00 Z2.000000)
G00 X-24.0000 Y54.5000 
G01 Z-0.600000
G01 Z2.000000
(G00 Z2.000000)
G00 X-24.0000 Y55.0000 
G01 Z-0.600000
G01 Z2.000000
(G00 Z2.000000)
G00 X-24.0000 Y55.5000 
G01 Z-0.600000
G01 Z2.000000
(G00 Z2.000000)
G00 X-24.0000 Y56.0000 
G01 Z-0.600000
G01 Z2.000000
(G00 Z2.000000)
G00 X-24.0000 Y56.5000 
G01 Z-0.600000
G01 Z2.000000
(G00 Z2.000000)
G00 X-24.5000 Y54.0000 
G01 Z-0.600000
G01 Z2.000000
(G00 Z2.000000)
G00 X-24.5000 Y56.5000 
G01 Z-0.600000
G01 Z2.000000
(G00 Z2.000000)
G00 X-25.0000 Y54.0000 
G01 Z-0.600000
G01 Z2.000000
(G00 Z2.000000)
G00 X-25.0000 Y54.5000 
G01 Z-0.600000
G01 Z2.000000
(G00 Z2.000000)
G00 X-25.0000 Y55.0000 
G01 Z-0.600000
G01 Z2.000000
(G00 Z2.000000)
G00 X-25.0000 Y55.5000 
G01 Z-0.600000
G01 Z2.000000
(G00 Z2.000000)
G00 X-25.0000 Y56.0000 
G01 Z-0.600000
G01 Z2.000000
(G00 Z2.000000)
G00 X-25.0000 Y56.5000 
G01 Z-0.600000
G01 Z2.000000
M05
G00 Z30.0000 
M06 T03  ; 0.8128 
G01 Z0.0000 F200.00 
M06 T03  ; 0.8128 
G00 Z2.0000 
M03
G04 P3.000000
G00 Z2.000000
G00 X-3.8400 Y64.2700 
G01 Z-0.6000 F200.00 
G01 Z2.000000
(R2.0000  P1.000000)
(G00 Z2.000000)
G00 X-3.8400 Y66.8100 
G01 Z-0.600000
G01 Z2.000000
(G00 Z2.000000)
G00 X-6.1700 Y64.1100 
G01 Z-0.600000
G01 Z2.000000
(G00 Z2.000000)
G00 X-6.1700 Y69.1900 
G01 Z-0.600000
G01 Z2.000000
(G00 Z2.000000)
G00 X-14.2300 Y19.4800 
G01 Z-0.600000
G01 Z2.000000
(G00 Z2.000000)
G00 X-16.7700 Y19.4800 
G01 Z-0.600000
G01 Z2.000000
M05
G00 Z30.0000 
M06 T04  ; 0.9000 
G01 Z0.0000 F200.00 
M06 T04  ; 0.9000 
G00 Z2.0000 
M03
G04 P3.000000
G00 Z2.000000
G00 X-12.0900 Y42.9500 
G01 Z-0.6000 F200.00 
G01 Z2.000000
(R2.0000  P1.000000)
(G00 Z2.000000)
G00 X-13.7900 Y46.8500 
G01 Z-0.600000
G01 Z2.000000
(G00 Z2.000000)
G00 X-15.4900 Y42.9500 
G01 Z-0.600000
G01 Z2.000000
(G00 Z2.000000)
G00 X-17.1900 Y46.8500 
G01 Z-0.600000
G01 Z2.000000
(G00 Z2.000000)
G00 X-18.8900 Y42.9500 
G01 Z-0.600000
G01 Z2.000000
M05
G00 Z30.0000 
M06 T05  ; 0.9500 
G01 Z0.0000 F200.00 
M06 T05  ; 0.9500 
G00 Z2.0000 
M03
G04 P3.000000
G00 Z2.000000
G00 X-11.9300 Y64.2100 
G01 Z-0.6000 F200.00 
G01 Z2.000000
(R2.0000  P1.000000)
(G00 Z2.000000)
G00 X-14.4300 Y64.2100 
G01 Z-0.600000
G01 Z2.000000
(G00 Z2.000000)
G00 X-16.4300 Y64.2100 
G01 Z-0.600000
G01 Z2.000000
(G00 Z2.000000)
G00 X-18.9300 Y64.2100 
G01 Z-0.600000
G01 Z2.000000
M05
G00 Z30.0000 
M06 T06  ; 1.0000 
G01 Z0.0000 F200.00 
M06 T06  ; 1.0000 
G00 Z2.0000 
M03
G04 P3.000000
G00 Z2.000000
G00 X-15.5000 Y3.5000 
G01 Z-0.6000 F200.00 
G01 Z2.000000
(R2.0000  P1.000000)
(G00 Z2.000000)
G00 X-15.5000 Y4.5000 
G01 Z-0.600000
G01 Z2.000000
(G00 Z2.000000)
G00 X-15.5000 Y5.5000 
G01 Z-0.600000
G01 Z2.000000
(G00 Z2.000000)
G00 X-15.5000 Y6.5000 
G01 Z-0.600000
G01 Z2.000000
(G00 Z2.000000)
G00 X-15.5000 Y7.5000 
G01 Z-0.600000
G01 Z2.000000
(G00 Z2.000000)
G00 X-16.9000 Y22.5000 
G01 Z-0.600000
G01 Z2.000000
(G00 Z2.000000)
G00 X-16.9000 Y26.0000 
G01 Z-0.600000
G01 Z2.000000
M05
G00 Z30.0000 
M06 T07  ; 1.0160 
G01 Z0.0000 F200.00 
M06 T07  ; 1.0160 
G00 Z2.0000 
M03
G04 P3.000000
G00 Z2.000000
G00 X-15.5000 Y2.5000 
G01 Z-0.6000 F200.00 
G01 Z2.000000
(R2.0000  P1.000000)
(G00 Z2.000000)
G00 X-16.9100 Y25.9900 
G01 Z-0.600000
G01 Z2.000000
(G00 Z2.000000)
G00 X-16.9300 Y22.4900 
G01 Z-0.600000
G01 Z2.000000
M05
G00 Z30.0000 
M06 T08  ; 1.3000 
G01 Z0.0000 F200.00 
M06 T08  ; 1.3000 
G00 Z2.0000 
M03
G04 P3.000000
G00 Z2.000000
G00 X-8.5000 Y53.5000 
G01 Z-0.6000 F200.00 
G01 Z2.000000
(R2.0000  P1.000000)
(G00 Z2.000000)
G00 X-8.5000 Y53.5000 
G01 Z-0.600000
G01 Z2.000000
(G00 Z2.000000)
G00 X-8.5000 Y58.5000 
G01 Z-0.600000
G01 Z2.000000
(G00 Z2.000000)
G00 X-8.5000 Y58.5000 
G01 Z-0.600000
G01 Z2.000000
M05
G00 Z30.0000 
M06 T09  ; 1.5000 
G01 Z0.0000 F200.00 
M06 T09  ; 1.5000 
G00 Z2.0000 
M03
G04 P3.000000
G00 Z2.000000
G00 X-8.9000 Y66.9000 
G01 Z-0.6000 F200.00 
G01 Z2.000000
(R2.0000  P1.000000)
(G00 Z2.000000)
G00 X-22.0000 Y66.9000 
G01 Z-0.600000
G01 Z2.000000
M05
G00 Z30.0000 
M06 T10  ; 2.0000 
G01 Z0.0000 F200.00 
M06 T10  ; 2.0000 
G00 Z2.0000 
M03
G04 P3.000000
G00 Z2.000000
G00 X-7.7000 Y42.0000 
G01 Z-0.6000 F200.00 
G01 Z2.000000
(R2.0000  P1.000000)
(G00 Z2.000000)
G00 X-23.3000 Y42.0000 
G01 Z-0.600000
G01 Z2.000000
M05
G00 Z30.0000 
M06 T11  ; 2.3000 
G01 Z0.0000 F200.00 
M06 T11  ; 2.3000 
G00 Z2.0000 
M03
G04 P3.000000
G00 Z2.000000
G00 X-8.8600 Y66.9200 
G01 Z-0.6000 F200.00 
G01 Z2.000000
(R2.0000  P1.000000)
(G00 Z2.000000)
G00 X-22.0000 Y66.9200 
G01 Z-0.600000
G01 Z2.000000
T01 
G00 Z10.0000 
M05
M02
