(.../pcb-gcode-3.6.0.4/pcb-gcode.ulp)
(Copyright 2005 - 2012 by John Johnson)
(See readme.txt for licensing terms.)
(This file generated from the board:)
(.../eagle/car_usb_charger/rev1.brd)
(Current profile is .../pcb-gcode-3.6.0.4/profiles/generic.pp  )
(This file generated 8/9/13 6:48 PM)
(Settings from pcb-machine.h)
(  Tool Size)
(0.3000 )
(Z Axis Settings)
(  High     Up        Down     Drill)
(10.0000 	2.0000 	-0.1500 	-0.6000 )
(spindle on time = 3.0000)
(milling depth = -0.2540)
(text depth = -0.1270)
(tool change at 20.0000 20.0000 30.0000 )
(feed rate xy = F400.00 )
(feed rate z  = F200.00 )
(Settings from pcb-defaults.h)
(isolate min = 0.0300)
(isolate max = 0.5080)
(isolate step = 0.1270)
(Generated bottom outlines, bottom drill, )
(Unit of measure: mm)
(Metric Mode)
G21
(Absolute Coordinates)
G90
G00 X0.0000 Y0.0000 
M03
G04 P3.000000
G00 Z2.0000 
G00 X-8.4446 Y40.4900 
G01 Z-0.1500 F200.00 
G01 X-8.6354 Y40.6001 F400.00 
G01 X-8.8101 Y40.7342 
G01 X-8.9658 Y40.8899 
G01 X-9.0999 Y41.0646 
G01 X-9.2100 Y41.2554 
G01 X-9.2943 Y41.4588 
G01 X-9.3513 Y41.6715 
G01 X-9.3800 Y41.8899 
G01 X-9.3800 Y42.1101 
G01 X-9.3513 Y42.3285 
G01 X-9.2943 Y42.5412 
G01 X-9.2100 Y42.7446 
G01 X-9.0999 Y42.9354 
G01 X-8.9658 Y43.1101 
G01 X-8.8101 Y43.2658 
G01 X-8.6354 Y43.3999 
G01 X-8.4446 Y43.5100 
G01 X-8.2412 Y43.5943 
G01 X-8.0285 Y43.6513 
G01 X-7.8101 Y43.6800 
G01 X-7.5899 Y43.6800 
G01 X-7.5684 Y43.6772 
G01 X-4.5335 Y56.3228 
G01 X-4.5999 Y56.2313 
G01 X-7.0903 Y53.7409 
G01 X-7.0700 Y53.6125 
G01 X-7.0700 Y53.3875 
G01 X-7.1052 Y53.1651 
G01 X-7.1748 Y52.9511 
G01 X-7.2770 Y52.7505 
G01 X-7.3200 Y52.6913 
G01 X-7.3200 Y48.9071 
G01 X-7.3491 Y48.7237 
G01 X-7.4065 Y48.5470 
G01 X-7.4908 Y48.3815 
G01 X-7.5999 Y48.2313 
G01 X-7.7313 Y48.0999 
G01 X-9.7313 Y46.0999 
G01 X-9.8815 Y45.9908 
G01 X-10.0470 Y45.9064 
G01 X-10.2237 Y45.8491 
G01 X-10.3568 Y45.8280 
G01 X-11.4072 Y44.7776 
G01 X-11.5595 Y44.6758 
G01 X-11.7287 Y44.6057 
G01 X-11.9084 Y44.5700 
G01 X-12.0916 Y44.5700 
G01 X-12.2713 Y44.6057 
G01 X-12.3142 Y44.6235 
G01 X-12.8649 Y44.2564 
G01 X-12.8974 Y44.1779 
G01 X-12.9718 Y44.0665 
G01 X-13.0665 Y43.9718 
G01 X-13.1779 Y43.8974 
G01 X-13.3017 Y43.8461 
G01 X-13.4330 Y43.8200 
G01 X-13.7183 Y43.8200 
G01 X-13.9700 Y43.5683 
G01 X-13.9700 Y41.9642 
G01 X-13.9974 Y41.8980 
G01 X-14.0480 Y41.8474 
G01 X-14.1142 Y41.8200 
G01 X-14.7115 Y41.8200 
G01 X-14.8034 Y41.6825 
G01 X-14.9265 Y41.5594 
G01 X-15.0713 Y41.4626 
G01 X-15.2321 Y41.3960 
G01 X-15.4029 Y41.3620 
G01 X-15.5771 Y41.3620 
G01 X-15.7479 Y41.3960 
G01 X-15.8200 Y41.4259 
G01 X-15.8200 Y27.6800 
G01 X-15.3642 Y27.6800 
G01 X-15.2980 Y27.6526 
G01 X-15.2474 Y27.6020 
G01 X-15.2200 Y27.5358 
G01 X-15.2200 Y24.4642 
G01 X-15.2474 Y24.3980 
G01 X-15.2980 Y24.3474 
G01 X-15.3642 Y24.3200 
G01 X-15.7500 Y24.3200 
G01 X-15.7500 Y24.1800 
G01 X-15.3642 Y24.1800 
G01 X-15.2980 Y24.1526 
G01 X-15.2474 Y24.1020 
G01 X-15.2200 Y24.0358 
G01 X-15.2200 Y20.9642 
G01 X-15.2474 Y20.8980 
G01 X-15.2980 Y20.8474 
G01 X-15.3642 Y20.8200 
G01 X-15.7500 Y20.8200 
G01 X-15.7500 Y20.0773 
G01 X-15.6765 Y19.9330 
G01 X-15.6191 Y19.7563 
G01 X-15.5900 Y19.5729 
G01 X-15.5900 Y19.3871 
G01 X-15.6191 Y19.2037 
G01 X-15.6765 Y19.0270 
G01 X-15.7608 Y18.8615 
G01 X-15.8699 Y18.7113 
G01 X-16.0013 Y18.5799 
G01 X-16.1515 Y18.4708 
G01 X-16.3170 Y18.3864 
G01 X-16.4937 Y18.3291 
G01 X-16.6771 Y18.3000 
G01 X-17.0229 Y18.3000 
G01 X-17.2063 Y18.3291 
G01 X-17.3830 Y18.3864 
G01 X-17.5485 Y18.4708 
G01 X-17.6987 Y18.5799 
G01 X-17.8300 Y18.7113 
G01 X-17.9392 Y18.8615 
G01 X-18.0235 Y19.0270 
G01 X-18.0809 Y19.2037 
G01 X-18.1100 Y19.3871 
G01 X-18.1100 Y20.8200 
G01 X-18.2560 Y20.8200 
G01 X-18.2560 Y9.5107 
G01 X-17.4765 Y0.6440 
G01 X-16.4553 Y0.6440 
G01 X-16.6608 Y0.7627 
G01 X-16.8777 Y0.9291 
G01 X-17.0709 Y1.1223 
G01 X-17.2373 Y1.3392 
G01 X-17.3740 Y1.5758 
G01 X-17.4786 Y1.8284 
G01 X-17.5493 Y2.0924 
G01 X-17.5850 Y2.3633 
G01 X-17.5850 Y15.6367 
G01 X-17.5493 Y15.9076 
G01 X-17.4786 Y16.1716 
G01 X-17.3740 Y16.4242 
G01 X-17.2373 Y16.6608 
G01 X-17.0709 Y16.8777 
G01 X-16.8777 Y17.0709 
G01 X-16.6608 Y17.2373 
G01 X-16.4242 Y17.3740 
G01 X-16.1716 Y17.4786 
G01 X-15.9076 Y17.5493 
G01 X-15.6367 Y17.5850 
G01 X-15.4100 Y17.5850 
G01 X-15.4100 Y19.5729 
G01 X-15.3809 Y19.7563 
G01 X-15.3235 Y19.9330 
G01 X-15.2392 Y20.0985 
G01 X-15.1800 Y20.1800 
G01 X-15.1800 Y37.5929 
G01 X-15.1509 Y37.7763 
G01 X-15.0935 Y37.9530 
G01 X-15.0092 Y38.1185 
G01 X-14.9001 Y38.2687 
G01 X-13.2700 Y39.8988 
G01 X-13.2700 Y41.8200 
G01 X-13.4858 Y41.8200 
G01 X-13.5520 Y41.8474 
G01 X-13.6026 Y41.8980 
G01 X-13.6300 Y41.9642 
G01 X-13.6300 Y43.6358 
G01 X-13.6026 Y43.7020 
G01 X-13.5520 Y43.7526 
G01 X-13.4858 Y43.7800 
G01 X-12.9663 Y43.7800 
G01 X-12.9400 Y43.9119 
G01 X-12.8734 Y44.0727 
G01 X-12.7766 Y44.2175 
G01 X-12.6535 Y44.3406 
G01 X-12.5087 Y44.4374 
G01 X-12.3479 Y44.5040 
G01 X-12.1771 Y44.5380 
G01 X-12.0029 Y44.5380 
G01 X-11.8321 Y44.5040 
G01 X-11.6713 Y44.4374 
G01 X-11.5265 Y44.3406 
G01 X-11.4034 Y44.2175 
G01 X-11.3066 Y44.0727 
G01 X-11.2400 Y43.9119 
G01 X-11.2060 Y43.7411 
G01 X-11.2060 Y43.7348 
G01 X-11.1899 Y43.7187 
G01 X-11.0808 Y43.5685 
G01 X-10.9965 Y43.4030 
G01 X-10.9391 Y43.2263 
G01 X-10.9100 Y43.0429 
G01 X-10.9100 Y39.3171 
G01 X-10.9391 Y39.1337 
G01 X-10.9965 Y38.9570 
G01 X-11.0808 Y38.7915 
G01 X-11.1899 Y38.6413 
G01 X-11.3213 Y38.5099 
G01 X-12.8200 Y37.0112 
G01 X-12.8200 Y19.3871 
G01 X-12.8491 Y19.2037 
G01 X-12.9065 Y19.0270 
G01 X-12.9908 Y18.8615 
G01 X-13.0500 Y18.7800 
G01 X-13.0500 Y15.4071 
G01 X-13.0791 Y15.2237 
G01 X-13.1364 Y15.0470 
G01 X-13.2208 Y14.8815 
G01 X-13.3299 Y14.7313 
G01 X-13.4150 Y14.6462 
G01 X-13.4150 Y2.3633 
G01 X-13.4507 Y2.0924 
G01 X-13.5214 Y1.8284 
G01 X-13.6260 Y1.5758 
G01 X-13.7627 Y1.3392 
G01 X-13.9291 Y1.1223 
G01 X-14.1223 Y0.9291 
G01 X-14.3392 Y0.7627 
G01 X-14.5447 Y0.6440 
G01 X-13.5235 Y0.6440 
G01 X-12.7440 Y9.5107 
G01 X-12.7440 Y32.5485 
G01 X-12.7069 Y32.6382 
G01 X-12.6382 Y32.7069 
G01 X-12.5485 Y32.7440 
G01 X-10.1924 Y32.7440 
G01 X-8.3434 Y40.4481 
G01 X-8.4446 Y40.4900 
G00 Z2.0000 
G00 X-27.8989 Y71.7560 
G01 Z-0.1500 F200.00 
G01 X-29.7309 Y69.9241 F400.00 
G01 X-25.7800 Y53.4622 
G01 X-25.7800 Y58.0858 
G01 X-25.7526 Y58.1520 
G01 X-25.7020 Y58.2026 
G01 X-25.6358 Y58.2300 
G01 X-24.4388 Y58.2300 
G01 X-19.9300 Y62.7388 
G01 X-19.9300 Y66.0916 
G01 X-19.8943 Y66.2713 
G01 X-19.8242 Y66.4405 
G01 X-19.7224 Y66.5928 
G01 X-19.6720 Y66.6432 
G01 X-19.6509 Y66.7763 
G01 X-19.5935 Y66.9530 
G01 X-19.5092 Y67.1185 
G01 X-19.4001 Y67.2687 
G01 X-15.7687 Y70.9001 
G01 X-15.6185 Y71.0092 
G01 X-15.4530 Y71.0935 
G01 X-15.2763 Y71.1509 
G01 X-15.0929 Y71.1800 
G01 X-7.9071 Y71.1800 
G01 X-7.7237 Y71.1509 
G01 X-7.5470 Y71.0935 
G01 X-7.3815 Y71.0092 
G01 X-7.2313 Y70.9001 
G01 X-7.0999 Y70.7687 
G01 X-6.7012 Y70.3700 
G01 X-6.0771 Y70.3700 
G01 X-5.9688 Y70.3528 
G01 X-5.5135 Y70.8082 
G01 X-5.4021 Y70.8826 
G01 X-5.2783 Y70.9339 
G01 X-5.1470 Y70.9600 
G01 X-4.8600 Y70.9600 
G01 X-4.8600 Y70.9658 
G01 X-4.8326 Y71.0320 
G01 X-4.7820 Y71.0826 
G01 X-4.7158 Y71.1100 
G01 X-3.1442 Y71.1100 
G01 X-3.0780 Y71.0826 
G01 X-3.0274 Y71.0320 
G01 X-3.0000 Y70.9658 
G01 X-3.0000 Y69.5942 
G01 X-3.0274 Y69.5280 
G01 X-3.0780 Y69.4774 
G01 X-3.1442 Y69.4500 
G01 X-4.7158 Y69.4500 
G01 X-4.7820 Y69.4774 
G01 X-4.8326 Y69.5280 
G01 X-4.8436 Y69.5547 
G01 X-5.0072 Y69.3912 
G01 X-4.9900 Y69.2829 
G01 X-4.9900 Y69.0971 
G01 X-5.0191 Y68.9137 
G01 X-5.0765 Y68.7370 
G01 X-5.1608 Y68.5715 
G01 X-5.2699 Y68.4213 
G01 X-5.4013 Y68.2899 
G01 X-5.5515 Y68.1808 
G01 X-5.7170 Y68.0965 
G01 X-5.8937 Y68.0391 
G01 X-6.0771 Y68.0100 
G01 X-7.2829 Y68.0100 
G01 X-7.4663 Y68.0391 
G01 X-7.6430 Y68.0965 
G01 X-7.8085 Y68.1808 
G01 X-7.9587 Y68.2899 
G01 X-8.4888 Y68.8200 
G01 X-14.5112 Y68.8200 
G01 X-17.7313 Y65.5999 
G01 X-17.8815 Y65.4908 
G01 X-18.0470 Y65.4065 
G01 X-18.0700 Y65.3990 
G01 X-18.0700 Y65.2381 
G01 X-18.0559 Y65.2041 
G01 X-18.0210 Y65.0285 
G01 X-18.0210 Y64.4072 
G01 X-18.0000 Y64.3016 
G01 X-18.0000 Y64.1184 
G01 X-18.0210 Y64.0128 
G01 X-18.0210 Y63.3915 
G01 X-18.0559 Y63.2159 
G01 X-18.0700 Y63.1819 
G01 X-18.0700 Y62.7275 
G01 X-17.9908 Y62.6185 
G01 X-17.9064 Y62.4530 
G01 X-17.8491 Y62.2763 
G01 X-17.8200 Y62.0929 
G01 X-17.8200 Y61.9071 
G01 X-17.8491 Y61.7237 
G01 X-17.9064 Y61.5470 
G01 X-17.9908 Y61.3815 
G01 X-18.0999 Y61.2313 
G01 X-21.5700 Y57.7612 
G01 X-21.5700 Y52.7388 
G01 X-17.2692 Y48.4380 
G01 X-17.1029 Y48.4380 
G01 X-16.9321 Y48.4040 
G01 X-16.7713 Y48.3374 
G01 X-16.6265 Y48.2406 
G01 X-16.5034 Y48.1175 
G01 X-16.4066 Y47.9727 
G01 X-16.3400 Y47.8119 
G01 X-16.3060 Y47.6411 
G01 X-16.3060 Y47.1460 
G01 X-16.2957 Y47.1213 
G01 X-16.2600 Y46.9416 
G01 X-16.2600 Y46.7584 
G01 X-16.2957 Y46.5787 
G01 X-16.3060 Y46.5540 
G01 X-16.3060 Y46.3059 
G01 X-16.2980 Y46.3026 
G01 X-16.2474 Y46.2520 
G01 X-16.2200 Y46.1858 
G01 X-16.2200 Y44.8142 
G01 X-16.2474 Y44.7480 
G01 X-16.2980 Y44.6974 
G01 X-16.3642 Y44.6700 
G01 X-18.0358 Y44.6700 
G01 X-18.1020 Y44.6974 
G01 X-18.1526 Y44.7480 
G01 X-18.1800 Y44.8142 
G01 X-18.1800 Y46.1858 
G01 X-18.1526 Y46.2520 
G01 X-18.1020 Y46.3026 
G01 X-18.0740 Y46.3142 
G01 X-18.0740 Y46.3200 
G01 X-18.0929 Y46.3200 
G01 X-18.2763 Y46.3491 
G01 X-18.4530 Y46.4064 
G01 X-18.6185 Y46.4908 
G01 X-18.7687 Y46.5999 
G01 X-24.4437 Y52.2749 
G01 X-24.5388 Y52.3700 
G01 X-25.5179 Y52.3700 
G01 X-23.4316 Y43.6772 
G01 X-23.4101 Y43.6800 
G01 X-23.1899 Y43.6800 
G01 X-22.9715 Y43.6513 
G01 X-22.7588 Y43.5943 
G01 X-22.5554 Y43.5100 
G01 X-22.3646 Y43.3999 
G01 X-22.1899 Y43.2658 
G01 X-22.0342 Y43.1101 
G01 X-21.9001 Y42.9354 
G01 X-21.7900 Y42.7446 
G01 X-21.7057 Y42.5412 
G01 X-21.6487 Y42.3285 
G01 X-21.6200 Y42.1101 
G01 X-21.6200 Y41.8899 
G01 X-21.6487 Y41.6715 
G01 X-21.7057 Y41.4588 
G01 X-21.7900 Y41.2554 
G01 X-21.9001 Y41.0646 
G01 X-22.0342 Y40.8899 
G01 X-22.1899 Y40.7342 
G01 X-22.3646 Y40.6001 
G01 X-22.5554 Y40.4900 
G01 X-22.6566 Y40.4481 
G01 X-20.8076 Y32.7440 
G01 X-18.4515 Y32.7440 
G01 X-18.3618 Y32.7069 
G01 X-18.2931 Y32.6382 
G01 X-18.2560 Y32.5485 
G01 X-18.2560 Y27.6800 
G01 X-18.1800 Y27.6800 
G01 X-18.1800 Y41.7174 
G01 X-18.2034 Y41.6825 
G01 X-18.3265 Y41.5594 
G01 X-18.4713 Y41.4626 
G01 X-18.6321 Y41.3960 
G01 X-18.8029 Y41.3620 
G01 X-18.9771 Y41.3620 
G01 X-19.1479 Y41.3960 
G01 X-19.3087 Y41.4626 
G01 X-19.4535 Y41.5594 
G01 X-19.5766 Y41.6825 
G01 X-19.6734 Y41.8273 
G01 X-19.7400 Y41.9881 
G01 X-19.7740 Y42.1589 
G01 X-19.7740 Y42.1652 
G01 X-19.7901 Y42.1813 
G01 X-19.8992 Y42.3315 
G01 X-19.9835 Y42.4970 
G01 X-20.0409 Y42.6737 
G01 X-20.0700 Y42.8571 
G01 X-20.0700 Y43.0429 
G01 X-20.0409 Y43.2263 
G01 X-19.9835 Y43.4030 
G01 X-19.8992 Y43.5685 
G01 X-19.7901 Y43.7187 
G01 X-19.7740 Y43.7348 
G01 X-19.7740 Y43.7411 
G01 X-19.7400 Y43.9119 
G01 X-19.6734 Y44.0727 
G01 X-19.5766 Y44.2175 
G01 X-19.4535 Y44.3406 
G01 X-19.3087 Y44.4374 
G01 X-19.1479 Y44.5040 
G01 X-18.9771 Y44.5380 
G01 X-18.8029 Y44.5380 
G01 X-18.6321 Y44.5040 
G01 X-18.4713 Y44.4374 
G01 X-18.3265 Y44.3406 
G01 X-18.2034 Y44.2175 
G01 X-18.1800 Y44.1826 
G01 X-18.1800 Y44.1858 
G01 X-18.1526 Y44.2520 
G01 X-18.1020 Y44.3026 
G01 X-18.0358 Y44.3300 
G01 X-16.3642 Y44.3300 
G01 X-16.2980 Y44.3026 
G01 X-16.2474 Y44.2520 
G01 X-16.2200 Y44.1858 
G01 X-16.2200 Y44.1526 
G01 X-16.1800 Y44.2125 
G01 X-16.1800 Y49.3425 
G01 X-16.1983 Y49.3461 
G01 X-16.2134 Y49.3524 
G01 X-16.2237 Y49.3491 
G01 X-16.4071 Y49.3200 
G01 X-16.5929 Y49.3200 
G01 X-16.7763 Y49.3491 
G01 X-16.9530 Y49.4064 
G01 X-17.1185 Y49.4908 
G01 X-17.2687 Y49.5999 
G01 X-18.7687 Y51.0999 
G01 X-18.9001 Y51.2313 
G01 X-19.0092 Y51.3815 
G01 X-19.0935 Y51.5470 
G01 X-19.1509 Y51.7237 
G01 X-19.1800 Y51.9071 
G01 X-19.1800 Y58.5929 
G01 X-19.1509 Y58.7763 
G01 X-19.0935 Y58.9530 
G01 X-19.0092 Y59.1185 
G01 X-18.9001 Y59.2687 
G01 X-16.9001 Y61.2687 
G01 X-16.7687 Y61.4001 
G01 X-16.6185 Y61.5092 
G01 X-16.4530 Y61.5935 
G01 X-16.2763 Y61.6509 
G01 X-16.0929 Y61.6800 
G01 X-13.4888 Y61.6800 
G01 X-12.6800 Y62.4888 
G01 X-12.6800 Y62.9673 
G01 X-12.7355 Y63.0504 
G01 X-12.8041 Y63.2159 
G01 X-12.8390 Y63.3915 
G01 X-12.8390 Y63.4536 
G01 X-12.9392 Y63.5915 
G01 X-13.0235 Y63.7570 
G01 X-13.0809 Y63.9337 
G01 X-13.1100 Y64.1171 
G01 X-13.1100 Y64.3029 
G01 X-13.0809 Y64.4863 
G01 X-13.0235 Y64.6630 
G01 X-12.9392 Y64.8285 
G01 X-12.8390 Y64.9664 
G01 X-12.8390 Y65.0285 
G01 X-12.8041 Y65.2041 
G01 X-12.7355 Y65.3696 
G01 X-12.6361 Y65.5185 
G01 X-12.5095 Y65.6451 
G01 X-12.3606 Y65.7445 
G01 X-12.1951 Y65.8131 
G01 X-12.0195 Y65.8480 
G01 X-11.8405 Y65.8480 
G01 X-11.6649 Y65.8131 
G01 X-11.4994 Y65.7445 
G01 X-11.3505 Y65.6451 
G01 X-11.2239 Y65.5185 
G01 X-11.1245 Y65.3696 
G01 X-11.0915 Y65.2900 
G01 X-6.0771 Y65.2900 
G01 X-5.8937 Y65.2609 
G01 X-5.7170 Y65.2035 
G01 X-5.5515 Y65.1192 
G01 X-5.4013 Y65.0101 
G01 X-5.3412 Y64.9500 
G01 X-4.3485 Y64.9500 
G01 X-4.1881 Y65.1104 
G01 X-3.4919 Y65.1104 
G01 X-2.9996 Y64.6181 
G01 X-2.9996 Y63.9219 
G01 X-3.4919 Y63.4296 
G01 X-4.1881 Y63.4296 
G01 X-4.3254 Y63.5669 
G01 X-4.3200 Y63.5329 
G01 X-4.3200 Y57.2122 
G01 X-1.2691 Y69.9241 
G01 X-3.1011 Y71.7560 
G01 X-27.8989 Y71.7560 
G00 Z2.0000 
G00 X-4.6804 Y66.4619 
G01 Z-0.1500 F200.00 
G01 X-4.6804 Y67.1581 F400.00 
G01 X-4.5200 Y67.3185 
G01 X-4.5200 Y67.5500 
G01 X-4.7158 Y67.5500 
G01 X-4.7820 Y67.5774 
G01 X-4.8326 Y67.6280 
G01 X-4.8600 Y67.6942 
G01 X-4.8600 Y69.0658 
G01 X-4.8326 Y69.1320 
G01 X-4.7820 Y69.1826 
G01 X-4.7158 Y69.2100 
G01 X-3.1442 Y69.2100 
G01 X-3.0780 Y69.1826 
G01 X-3.0274 Y69.1320 
G01 X-3.0000 Y69.0658 
G01 X-3.0000 Y67.6942 
G01 X-3.0274 Y67.6280 
G01 X-3.0780 Y67.5774 
G01 X-3.1442 Y67.5500 
G01 X-3.1600 Y67.5500 
G01 X-3.1600 Y67.3185 
G01 X-2.9996 Y67.1581 
G01 X-2.9996 Y66.4619 
G01 X-3.4919 Y65.9696 
G01 X-4.1881 Y65.9696 
G01 X-4.6804 Y66.4619 
G00 Z2.0000 
G00 X-15.3390 Y63.3915 
G01 Z-0.1500 F200.00 
G01 X-15.3390 Y63.5300 F400.00 
G01 X-15.5210 Y63.5300 
G01 X-15.5210 Y63.3915 
G01 X-15.5559 Y63.2159 
G01 X-15.6245 Y63.0504 
G01 X-15.7239 Y62.9015 
G01 X-15.8505 Y62.7749 
G01 X-15.9994 Y62.6755 
G01 X-16.1649 Y62.6069 
G01 X-16.3405 Y62.5720 
G01 X-16.5195 Y62.5720 
G01 X-16.6951 Y62.6069 
G01 X-16.8606 Y62.6755 
G01 X-17.0095 Y62.7749 
G01 X-17.1361 Y62.9015 
G01 X-17.2355 Y63.0504 
G01 X-17.3041 Y63.2159 
G01 X-17.3390 Y63.3915 
G01 X-17.3390 Y65.0285 
G01 X-17.3041 Y65.2041 
G01 X-17.2355 Y65.3696 
G01 X-17.1361 Y65.5185 
G01 X-17.0095 Y65.6451 
G01 X-16.8606 Y65.7445 
G01 X-16.6951 Y65.8131 
G01 X-16.5195 Y65.8480 
G01 X-16.3405 Y65.8480 
G01 X-16.1649 Y65.8131 
G01 X-15.9994 Y65.7445 
G01 X-15.8505 Y65.6451 
G01 X-15.7239 Y65.5185 
G01 X-15.6245 Y65.3696 
G01 X-15.5559 Y65.2041 
G01 X-15.5210 Y65.0285 
G01 X-15.5210 Y64.8900 
G01 X-15.3390 Y64.8900 
G01 X-15.3390 Y65.0285 
G01 X-15.3041 Y65.2041 
G01 X-15.2355 Y65.3696 
G01 X-15.1361 Y65.5185 
G01 X-15.0095 Y65.6451 
G01 X-14.8606 Y65.7445 
G01 X-14.6951 Y65.8131 
G01 X-14.5195 Y65.8480 
G01 X-14.3405 Y65.8480 
G01 X-14.1649 Y65.8131 
G01 X-13.9994 Y65.7445 
G01 X-13.8505 Y65.6451 
G01 X-13.7239 Y65.5185 
G01 X-13.6245 Y65.3696 
G01 X-13.5559 Y65.2041 
G01 X-13.5210 Y65.0285 
G01 X-13.5210 Y63.3915 
G01 X-13.5559 Y63.2159 
G01 X-13.6245 Y63.0504 
G01 X-13.7239 Y62.9015 
G01 X-13.8505 Y62.7749 
G01 X-13.9994 Y62.6755 
G01 X-14.1649 Y62.6069 
G01 X-14.3405 Y62.5720 
G01 X-14.5195 Y62.5720 
G01 X-14.6951 Y62.6069 
G01 X-14.8606 Y62.6755 
G01 X-15.0095 Y62.7749 
G01 X-15.1361 Y62.9015 
G01 X-15.2355 Y63.0504 
G01 X-15.3041 Y63.2159 
G01 X-15.3390 Y63.3915 
G00 Z2.0000 
G00 X-10.9800 Y65.9642 
G01 Z-0.1500 F200.00 
G01 X-10.9800 Y66.0700 F400.00 
G01 X-12.2858 Y66.0700 
G01 X-12.3520 Y66.0974 
G01 X-12.4026 Y66.1480 
G01 X-12.4300 Y66.2142 
G01 X-12.4300 Y67.7858 
G01 X-12.4026 Y67.8520 
G01 X-12.3520 Y67.9026 
G01 X-12.2858 Y67.9300 
G01 X-10.9800 Y67.9300 
G01 X-10.9800 Y68.0358 
G01 X-10.9526 Y68.1020 
G01 X-10.9020 Y68.1526 
G01 X-10.8358 Y68.1800 
G01 X-9.7642 Y68.1800 
G01 X-9.6980 Y68.1526 
G01 X-9.6748 Y68.1294 
G01 X-9.6600 Y68.1402 
G01 X-9.4566 Y68.2438 
G01 X-9.2395 Y68.3143 
G01 X-9.0141 Y68.3500 
G01 X-8.7859 Y68.3500 
G01 X-8.5605 Y68.3143 
G01 X-8.3434 Y68.2438 
G01 X-8.1400 Y68.1402 
G01 X-7.9554 Y68.0060 
G01 X-7.7940 Y67.8446 
G01 X-7.6598 Y67.6600 
G01 X-7.5562 Y67.4566 
G01 X-7.4857 Y67.2395 
G01 X-7.4500 Y67.0141 
G01 X-7.4500 Y66.7859 
G01 X-7.4857 Y66.5605 
G01 X-7.5562 Y66.3434 
G01 X-7.6598 Y66.1400 
G01 X-7.7940 Y65.9554 
G01 X-7.9554 Y65.7940 
G01 X-8.1400 Y65.6598 
G01 X-8.3434 Y65.5562 
G01 X-8.5605 Y65.4857 
G01 X-8.7859 Y65.4500 
G01 X-9.0141 Y65.4500 
G01 X-9.2395 Y65.4857 
G01 X-9.4566 Y65.5562 
G01 X-9.6600 Y65.6598 
G01 X-9.8446 Y65.7940 
G01 X-9.8706 Y65.8200 
G01 X-10.8358 Y65.8200 
G01 X-10.9020 Y65.8474 
G01 X-10.9526 Y65.8980 
G01 X-10.9800 Y65.9642 
G00 Z2.0000 
G00 X-24.0850 Y66.7633 
G01 Z-0.1500 F200.00 
G01 X-24.0850 Y67.0367 F400.00 
G01 X-24.0493 Y67.3076 
G01 X-23.9786 Y67.5716 
G01 X-23.8740 Y67.8242 
G01 X-23.7373 Y68.0608 
G01 X-23.5709 Y68.2777 
G01 X-23.3777 Y68.4709 
G01 X-23.1608 Y68.6373 
G01 X-22.9242 Y68.7740 
G01 X-22.6716 Y68.8786 
G01 X-22.4076 Y68.9493 
G01 X-22.1367 Y68.9850 
G01 X-21.8633 Y68.9850 
G01 X-21.5924 Y68.9493 
G01 X-21.3284 Y68.8786 
G01 X-21.0758 Y68.7740 
G01 X-20.8392 Y68.6373 
G01 X-20.6223 Y68.4709 
G01 X-20.4291 Y68.2777 
G01 X-20.2627 Y68.0608 
G01 X-20.1260 Y67.8242 
G01 X-20.0214 Y67.5716 
G01 X-19.9507 Y67.3076 
G01 X-19.9150 Y67.0367 
G01 X-19.9150 Y66.7633 
G01 X-19.9507 Y66.4924 
G01 X-20.0214 Y66.2284 
G01 X-20.1260 Y65.9758 
G01 X-20.2627 Y65.7392 
G01 X-20.4291 Y65.5223 
G01 X-20.6223 Y65.3291 
G01 X-20.8392 Y65.1627 
G01 X-21.0758 Y65.0260 
G01 X-21.3284 Y64.9214 
G01 X-21.5924 Y64.8507 
G01 X-21.8633 Y64.8150 
G01 X-22.1367 Y64.8150 
G01 X-22.4076 Y64.8507 
G01 X-22.6716 Y64.9214 
G01 X-22.9242 Y65.0260 
G01 X-23.1608 Y65.1627 
G01 X-23.3777 Y65.3291 
G01 X-23.5709 Y65.5223 
G01 X-23.7373 Y65.7392 
G01 X-23.8740 Y65.9758 
G01 X-23.9786 Y66.2284 
G01 X-24.0493 Y66.4924 
G01 X-24.0850 Y66.7633 
G00 Z2.0000 
G00 X-24.9800 Y41.8899 
G01 Z-0.1500 F200.00 
G01 X-24.9800 Y42.1101 F400.00 
G01 X-24.9513 Y42.3285 
G01 X-24.8943 Y42.5412 
G01 X-24.8100 Y42.7446 
G01 X-24.6999 Y42.9354 
G01 X-24.5658 Y43.1101 
G01 X-24.4101 Y43.2658 
G01 X-24.2354 Y43.3999 
G01 X-24.0446 Y43.5100 
G01 X-23.9070 Y43.5670 
G01 X-30.0650 Y69.2253 
G01 X-30.0650 Y0.3350 
G01 X-17.9392 Y0.3350 
G01 X-17.9398 Y0.3413 
G01 X-17.9440 Y0.3515 
G01 X-17.9440 Y0.3893 
G01 X-18.7398 Y9.4413 
G01 X-18.7440 Y9.4515 
G01 X-18.7440 Y9.4893 
G01 X-18.7473 Y9.5270 
G01 X-18.7440 Y9.5375 
G01 X-18.7440 Y32.2560 
G01 X-20.9711 Y32.2560 
G01 X-20.9902 Y32.2514 
G01 X-21.0192 Y32.2560 
G01 X-21.0485 Y32.2560 
G01 X-21.0667 Y32.2635 
G01 X-21.0861 Y32.2666 
G01 X-21.1111 Y32.2819 
G01 X-21.1382 Y32.2931 
G01 X-21.1521 Y32.3071 
G01 X-21.1689 Y32.3173 
G01 X-21.1861 Y32.3411 
G01 X-21.2068 Y32.3618 
G01 X-21.2144 Y32.3799 
G01 X-21.2259 Y32.3959 
G01 X-21.2328 Y32.4244 
G01 X-21.2440 Y32.4515 
G01 X-21.2440 Y32.4711 
G01 X-23.1296 Y40.3279 
G01 X-23.1899 Y40.3200 
G01 X-23.4101 Y40.3200 
G01 X-23.6285 Y40.3487 
G01 X-23.8412 Y40.4057 
G01 X-24.0446 Y40.4900 
G01 X-24.2354 Y40.6001 
G01 X-24.4101 Y40.7342 
G01 X-24.5658 Y40.8899 
G01 X-24.6999 Y41.0646 
G01 X-24.8100 Y41.2554 
G01 X-24.8943 Y41.4588 
G01 X-24.9513 Y41.6715 
G01 X-24.9800 Y41.8899 
G00 Z2.0000 
G00 X-18.1100 Y24.1800 
G01 Z-0.1500 F200.00 
G01 X-18.1100 Y24.3200 F400.00 
G01 X-18.2560 Y24.3200 
G01 X-18.2560 Y24.1800 
G01 X-18.1100 Y24.1800 
G00 Z2.0000 
G00 X-9.7230 Y52.7505 
G01 Z-0.1500 F200.00 
G01 X-9.8252 Y52.9511 F400.00 
G01 X-9.8948 Y53.1651 
G01 X-9.9300 Y53.3875 
G01 X-9.9300 Y53.6125 
G01 X-9.8948 Y53.8349 
G01 X-9.8252 Y54.0489 
G01 X-9.7230 Y54.2495 
G01 X-9.6084 Y54.4073 
G01 X-9.5935 Y54.4530 
G01 X-9.5092 Y54.6185 
G01 X-9.4001 Y54.7687 
G01 X-9.2687 Y54.9001 
G01 X-6.6800 Y57.4888 
G01 X-6.6800 Y62.9300 
G01 X-10.3200 Y62.9300 
G01 X-10.3200 Y61.9071 
G01 X-10.3491 Y61.7237 
G01 X-10.4065 Y61.5470 
G01 X-10.4908 Y61.3815 
G01 X-10.5999 Y61.2313 
G01 X-10.7313 Y61.0999 
G01 X-12.2313 Y59.5999 
G01 X-12.3815 Y59.4908 
G01 X-12.5470 Y59.4064 
G01 X-12.7237 Y59.3491 
G01 X-12.9071 Y59.3200 
G01 X-15.5112 Y59.3200 
G01 X-16.8200 Y58.0112 
G01 X-16.8200 Y52.4888 
G01 X-15.5999 Y51.2687 
G01 X-15.4908 Y51.1185 
G01 X-15.4065 Y50.9530 
G01 X-15.3491 Y50.7763 
G01 X-15.3306 Y50.6596 
G01 X-15.3017 Y50.6539 
G01 X-15.1779 Y50.6026 
G01 X-15.0665 Y50.5282 
G01 X-14.9718 Y50.4335 
G01 X-14.8974 Y50.3221 
G01 X-14.8461 Y50.1983 
G01 X-14.8200 Y50.0670 
G01 X-14.8200 Y44.6417 
G01 X-14.5282 Y44.9335 
G01 X-14.4335 Y45.0282 
G01 X-14.3221 Y45.1026 
G01 X-14.1983 Y45.1539 
G01 X-14.0670 Y45.1800 
G01 X-13.4805 Y45.1800 
G01 X-12.9300 Y45.5470 
G01 X-12.9300 Y45.5916 
G01 X-12.8943 Y45.7713 
G01 X-12.8242 Y45.9405 
G01 X-12.7224 Y46.0928 
G01 X-11.6720 Y47.1432 
G01 X-11.6509 Y47.2763 
G01 X-11.5935 Y47.4530 
G01 X-11.5092 Y47.6185 
G01 X-11.4001 Y47.7687 
G01 X-9.6800 Y49.4888 
G01 X-9.6800 Y52.6913 
G01 X-9.7230 Y52.7505 
G00 Z2.0000 
G00 X-9.2495 Y59.7230 
G01 Z-0.1500 F200.00 
G01 X-9.0489 Y59.8252 F400.00 
G01 X-8.8349 Y59.8948 
G01 X-8.6125 Y59.9300 
G01 X-8.3875 Y59.9300 
G01 X-8.1651 Y59.8948 
G01 X-7.9511 Y59.8252 
G01 X-7.7505 Y59.7230 
G01 X-7.5684 Y59.5907 
G01 X-7.4093 Y59.4316 
G01 X-7.2770 Y59.2495 
G01 X-7.1748 Y59.0489 
G01 X-7.1052 Y58.8349 
G01 X-7.0700 Y58.6125 
G01 X-7.0700 Y58.3875 
G01 X-7.1052 Y58.1651 
G01 X-7.1748 Y57.9511 
G01 X-7.2770 Y57.7505 
G01 X-7.4093 Y57.5684 
G01 X-7.5684 Y57.4093 
G01 X-7.7505 Y57.2770 
G01 X-7.9511 Y57.1748 
G01 X-8.1651 Y57.1052 
G01 X-8.3875 Y57.0700 
G01 X-8.6125 Y57.0700 
G01 X-8.8349 Y57.1052 
G01 X-9.0489 Y57.1748 
G01 X-9.2495 Y57.2770 
G01 X-9.3087 Y57.3200 
G01 X-10.0362 Y57.3200 
G01 X-11.6200 Y55.7362 
G01 X-11.6200 Y52.5142 
G01 X-11.6474 Y52.4480 
G01 X-11.6980 Y52.3974 
G01 X-11.7642 Y52.3700 
G01 X-11.8200 Y52.3700 
G01 X-11.8200 Y48.4071 
G01 X-11.8491 Y48.2237 
G01 X-11.9065 Y48.0470 
G01 X-11.9908 Y47.8815 
G01 X-12.0700 Y47.7725 
G01 X-12.0700 Y47.5484 
G01 X-12.1057 Y47.3687 
G01 X-12.1758 Y47.1995 
G01 X-12.2776 Y47.0472 
G01 X-12.4072 Y46.9176 
G01 X-12.9060 Y46.4188 
G01 X-12.9060 Y46.0589 
G01 X-12.9400 Y45.8881 
G01 X-13.0066 Y45.7273 
G01 X-13.1034 Y45.5825 
G01 X-13.2265 Y45.4594 
G01 X-13.3713 Y45.3626 
G01 X-13.5321 Y45.2960 
G01 X-13.7029 Y45.2620 
G01 X-13.8771 Y45.2620 
G01 X-14.0479 Y45.2960 
G01 X-14.2087 Y45.3626 
G01 X-14.3535 Y45.4594 
G01 X-14.4766 Y45.5825 
G01 X-14.5734 Y45.7273 
G01 X-14.6400 Y45.8881 
G01 X-14.6740 Y46.0589 
G01 X-14.6740 Y46.5540 
G01 X-14.6843 Y46.5787 
G01 X-14.7200 Y46.7584 
G01 X-14.7200 Y46.9416 
G01 X-14.6843 Y47.1213 
G01 X-14.6740 Y47.1460 
G01 X-14.6740 Y47.6411 
G01 X-14.6400 Y47.8119 
G01 X-14.5734 Y47.9727 
G01 X-14.4766 Y48.1175 
G01 X-14.3535 Y48.2406 
G01 X-14.2087 Y48.3374 
G01 X-14.1714 Y48.3528 
G01 X-14.1800 Y48.4071 
G01 X-14.1800 Y52.3700 
G01 X-15.6858 Y52.3700 
G01 X-15.7520 Y52.3974 
G01 X-15.8026 Y52.4480 
G01 X-15.8300 Y52.5142 
G01 X-15.8300 Y58.0858 
G01 X-15.8026 Y58.1520 
G01 X-15.7520 Y58.2026 
G01 X-15.6858 Y58.2300 
G01 X-12.4638 Y58.2300 
G01 X-11.4251 Y59.2687 
G01 X-11.2937 Y59.4001 
G01 X-11.1435 Y59.5092 
G01 X-10.9780 Y59.5935 
G01 X-10.8013 Y59.6509 
G01 X-10.6179 Y59.6800 
G01 X-9.3087 Y59.6800 
G01 X-9.2495 Y59.7230 
G00 Z2.0000 
G00 Z2.000000
G00 X-15.5000 Y3.5000 
G01 Z-0.3000 F200.00 
G01 Z2.000000
(R2.0000  P1.000000)
(G00 Z2.000000)
G00 X-15.5000 Y4.5000 
G01 Z-0.600000
G01 Z2.000000
(G00 Z2.000000)
G00 X-15.5000 Y5.5000 
G01 Z-0.600000
G01 Z2.000000
(G00 Z2.000000)
G00 X-15.5000 Y6.5000 
G01 Z-0.600000
G01 Z2.000000
(G00 Z2.000000)
G00 X-15.5000 Y7.5000 
G01 Z-0.600000
G01 Z2.000000
(G00 Z2.000000)
G00 X-13.0000 Y54.0000 
G01 Z-0.600000
G01 Z2.000000
(G00 Z2.000000)
G00 X-13.0000 Y54.0000 
G01 Z-0.600000
G01 Z2.000000
(G00 Z2.000000)
G00 X-7.7000 Y42.0000 
G01 Z-0.600000
G01 Z2.000000
(G00 Z2.000000)
G00 X-23.3000 Y42.0000 
G01 Z-0.600000
G01 Z2.000000
(G00 Z2.000000)
G00 X-10.3000 Y66.5000 
G01 Z-0.600000
G01 Z2.000000
(G00 Z2.000000)
G00 X-16.9000 Y22.5000 
G01 Z-0.600000
G01 Z2.000000
(G00 Z2.000000)
G00 X-16.9000 Y26.0000 
G01 Z-0.600000
G01 Z2.000000
(G00 Z2.000000)
G00 X-10.3000 Y67.5000 
G01 Z-0.600000
G01 Z2.000000
(G00 Z2.000000)
G00 X-22.0000 Y66.9000 
G01 Z-0.600000
G01 Z2.000000
(G00 Z2.000000)
G00 X-11.5000 Y67.0000 
G01 Z-0.600000
G01 Z2.000000
(G00 Z2.000000)
G00 X-12.5000 Y56.5000 
G01 Z-0.600000
G01 Z2.000000
(G00 Z2.000000)
G00 X-12.5000 Y56.0000 
G01 Z-0.600000
G01 Z2.000000
(G00 Z2.000000)
G00 X-12.5000 Y55.5000 
G01 Z-0.600000
G01 Z2.000000
(G00 Z2.000000)
G00 X-12.5000 Y55.0000 
G01 Z-0.600000
G01 Z2.000000
(G00 Z2.000000)
G00 X-12.5000 Y54.5000 
G01 Z-0.600000
G01 Z2.000000
(G00 Z2.000000)
G00 X-12.5000 Y54.0000 
G01 Z-0.600000
G01 Z2.000000
(G00 Z2.000000)
G00 X-13.5000 Y54.0000 
G01 Z-0.600000
G01 Z2.000000
(G00 Z2.000000)
G00 X-13.5000 Y54.5000 
G01 Z-0.600000
G01 Z2.000000
(G00 Z2.000000)
G00 X-13.5000 Y55.0000 
G01 Z-0.600000
G01 Z2.000000
(G00 Z2.000000)
G00 X-13.5000 Y55.5000 
G01 Z-0.600000
G01 Z2.000000
(G00 Z2.000000)
G00 X-13.5000 Y56.0000 
G01 Z-0.600000
G01 Z2.000000
(G00 Z2.000000)
G00 X-13.5000 Y56.5000 
G01 Z-0.600000
G01 Z2.000000
(G00 Z2.000000)
G00 X-13.0000 Y56.5000 
G01 Z-0.600000
G01 Z2.000000
(G00 Z2.000000)
G00 X-25.0000 Y56.5000 
G01 Z-0.600000
G01 Z2.000000
(G00 Z2.000000)
G00 X-25.0000 Y56.0000 
G01 Z-0.600000
G01 Z2.000000
(G00 Z2.000000)
G00 X-25.0000 Y55.5000 
G01 Z-0.600000
G01 Z2.000000
(G00 Z2.000000)
G00 X-25.0000 Y54.5000 
G01 Z-0.600000
G01 Z2.000000
(G00 Z2.000000)
G00 X-25.0000 Y55.0000 
G01 Z-0.600000
G01 Z2.000000
(G00 Z2.000000)
G00 X-25.0000 Y54.0000 
G01 Z-0.600000
G01 Z2.000000
(G00 Z2.000000)
G00 X-24.5000 Y54.0000 
G01 Z-0.600000
G01 Z2.000000
(G00 Z2.000000)
G00 X-24.0000 Y54.0000 
G01 Z-0.600000
G01 Z2.000000
(G00 Z2.000000)
G00 X-24.0000 Y54.5000 
G01 Z-0.600000
G01 Z2.000000
(G00 Z2.000000)
G00 X-24.0000 Y55.0000 
G01 Z-0.600000
G01 Z2.000000
(G00 Z2.000000)
G00 X-24.0000 Y55.5000 
G01 Z-0.600000
G01 Z2.000000
(G00 Z2.000000)
G00 X-24.0000 Y56.0000 
G01 Z-0.600000
G01 Z2.000000
(G00 Z2.000000)
G00 X-24.0000 Y56.5000 
G01 Z-0.600000
G01 Z2.000000
(G00 Z2.000000)
G00 X-24.5000 Y56.5000 
G01 Z-0.600000
G01 Z2.000000
(G00 Z2.000000)
G00 X-8.9000 Y66.9000 
G01 Z-0.600000
G01 Z2.000000
(G00 Z2.000000)
G00 X-15.5000 Y2.5000 
G01 Z-0.600000
G01 Z2.000000
(G00 Z2.000000)
G00 X-14.2300 Y19.4800 
G01 Z-0.600000
G01 Z2.000000
(G00 Z2.000000)
G00 X-16.7700 Y19.4800 
G01 Z-0.600000
G01 Z2.000000
(G00 Z2.000000)
G00 X-6.1700 Y69.1900 
G01 Z-0.600000
G01 Z2.000000
(G00 Z2.000000)
G00 X-6.1700 Y64.1100 
G01 Z-0.600000
G01 Z2.000000
(G00 Z2.000000)
G00 X-8.5000 Y58.5000 
G01 Z-0.600000
G01 Z2.000000
(G00 Z2.000000)
G00 X-8.5000 Y53.5000 
G01 Z-0.600000
G01 Z2.000000
(G00 Z2.000000)
G00 X-8.5000 Y58.5000 
G01 Z-0.600000
G01 Z2.000000
(G00 Z2.000000)
G00 X-8.5000 Y53.5000 
G01 Z-0.600000
G01 Z2.000000
(G00 Z2.000000)
G00 X-12.0900 Y42.9500 
G01 Z-0.600000
G01 Z2.000000
(G00 Z2.000000)
G00 X-13.7900 Y46.8500 
G01 Z-0.600000
G01 Z2.000000
(G00 Z2.000000)
G00 X-15.4900 Y42.9500 
G01 Z-0.600000
G01 Z2.000000
(G00 Z2.000000)
G00 X-17.1900 Y46.8500 
G01 Z-0.600000
G01 Z2.000000
(G00 Z2.000000)
G00 X-18.8900 Y42.9500 
G01 Z-0.600000
G01 Z2.000000
(G00 Z2.000000)
G00 X-16.9100 Y25.9900 
G01 Z-0.600000
G01 Z2.000000
(G00 Z2.000000)
G00 X-16.9300 Y22.4900 
G01 Z-0.600000
G01 Z2.000000
(G00 Z2.000000)
G00 X-3.8400 Y64.2700 
G01 Z-0.600000
G01 Z2.000000
(G00 Z2.000000)
G00 X-3.8400 Y66.8100 
G01 Z-0.600000
G01 Z2.000000
(G00 Z2.000000)
G00 X-18.9300 Y64.2100 
G01 Z-0.600000
G01 Z2.000000
(G00 Z2.000000)
G00 X-16.4300 Y64.2100 
G01 Z-0.600000
G01 Z2.000000
(G00 Z2.000000)
G00 X-14.4300 Y64.2100 
G01 Z-0.600000
G01 Z2.000000
(G00 Z2.000000)
G00 X-11.9300 Y64.2100 
G01 Z-0.600000
G01 Z2.000000
(G00 Z2.000000)
G00 X-22.0000 Y66.9200 
G01 Z-0.600000
G01 Z2.000000
(G00 Z2.000000)
G00 X-8.8600 Y66.9200 
G01 Z-0.600000
G01 Z2.000000
G00 Z10.0000 

